**kern	**kern
*staff2	*staff1
*clefF4	*clefG2
*k[f#c#g#]	*k[f#c#g#]
*M3/4	*M3/4
*A:	*A:
=	=
16f#LL	(8cc#L
16ff#	.
16cc#	8ccc#J)
16ff#JJ	.
16f#LL	(8cc#L
16ff#	.
16cc#	8ccc#J)
16ff#JJ	.
16f#LL	(8cc#L
16ff#	.
16cc#	8ccc#J)
16ff#JJ	.
=256	=256
16f#LL	(8cc#L 8ccc#
16ee	.
16b	8bJ) 8bb
16eeJJ	.
16f#LL	4a 4aa
16ff#	.
16a	.
16ff#JJ	.
16f#LL	8aL
16ff#	.
16a	8cc#J
16ff#JJ	.
=257	=257
16g#LL	(8eeL
16ee	.
16cc#	8eeeJ)
16eeJJ	.
16g#LL	(8eeL
16ee	.
16cc#	8eeeJ)
16eeJJ	.
16g#LL	(16dd#LL
16ff#	16ee
16dd	16ff#
16ff#JJ	16dd#JJ)
=258	=258
16cc#LL	(8eeL
16gg#	.
16ee	8eeeJ)
16gg#JJ	.
16cc#LL	(8eeL
16gg#	.
16ee	8eeeJ)
16gg#JJ	.
16cc#LL	(16ccc#LL
16ff#	16ddd
16een	16eee
16ff#JJ	16ccc#JJ)
=259	=259
16bLL	(8ddL
16ff#	.
16dd	8dddJ)
16ff#JJ	.
16bLL	(8ddL
16ff#	.
16dd	8dddJ)
16ff#JJ	.
16bLL	(16bbLL
16gg#	16ccc#
16dd	16ddd
16gg#JJ	16bbJJ)
=260	=260
16cc#LL	8aa'
16aa	.
16ff#	4aa
16aaJJ	.
16cc#LL	.
16aa	.
16ff#	8aa'
16aaJJ	.
16bLL	(16gg#LL
16gg#	16aa
16cc#	16bb
16gg#JJ	16gg#JJ)
=261	=261
16aLL	8eee'
16ff#	.
16cc#	4eee
16ff#JJ	.
16aLL	.
16ff#	.
16cc#	8eee'
16ff#JJ	.
16bLL	(16dddLL
16gg#	16ccc#
16dd	16ddd
16gg#JJ	16bbJJ)
=262	=262
16cc#LL	8aa'
16aa	.
16ff#	4aa
16aaJJ	.
16cc#LL	.
16aa	.
16ff#	8aa'
16aaJJ	.
16bLL	(16gg#LL
16gg#	16aa
16cc#	16bb
16gg#JJ	16gg#JJ)
=263	=263
16aLL	8eee'L
16ff#	.
16cc#	(16eeeL
16ff#JJ	16ddd#JJ
16aLL	16eeeLL
16ff#	16ddd#
16cc#	16eee
16ff#JJ	16ddd#JJ
16bLL	16dddLL
16gg#	16ccc#
16dd	16ddd
16gg#JJ	16bbJJ)
=264	=264
16cc#LL	8aa'
16aa	.
16ff#	4aa
16aaJJ	.
16cc#LL	.
16aa	.
16ff#	8aa'
16aaJJ	.
16cc#LL	(16gg#LL
16bb	16aa
16gg#	16bb
16bbJJ	16gg#JJ)
=265	=265
8ff#L 8aa	4aa
8ccc#J	.
8ccc#L	4r
8ccc#J	.
(8bbL	(16g#LL
.	16a
8ccc#J)	16b
.	16g#JJ)
=266	=266
8aaL	4a
8ccc#J	.
8ccc#L	4r
8ccc#J	.
*	*clefF4
(8bbL	(16GG#LL
.	16AA
8ccc#J)	16BB
.	16GG#JJ)
=267	=267
8aa'L	4AA'
8ccc#'J	.
8aa'L	4AA'
8ccc#'J	.
(8aa'L	4AA'
8ccc#'J)	.
=268	=268
4aa	4AA
4r	4r
4r	4r
==	==
*-	*-
